X:13
T: Walzer-Juiz  F (trad.)
T: Julius Stockmann (3.3.1897-5.3.1956)
T:Dirigenten-Notiz, Edi Gasser.
C:Unterwalden (CH)
%%partsbox
M:3/4
%Q:1/4=110
R:Naturjodel
L:1/8
K:F
[P:A] "gelassen, doch fliessend" F3A/D/ DA | C2 fc AF | E3B DB | C3c B!fermata!c | E3B DC | 
C2ec BE | FA/A/ cf dc | A6 | F3A/D/ DA | C2 fc A/F/d/c/ | 
E3B DB | C3c B!fermata!c | E3B DC | C2ec BE | F6 | f4z2 ||  
M:3/4
[P:B] "lustig" Gc cc Bc | ee cc BE | Fc cc Ac | f2 cc AF | E3B DC | 
Cc cB Ec | F2f2ed | c6 | Gc cc  Bc | ee cc BE | 
Fc cc Ac | f2 cc AF | E3B DC | C2 dc BE | F6 | f4z2 |] 
W:
W:Reihenfolge: A-A-B-A
W:
W:nach Angaben von August Wirz. Original-Tonart  E-Dur
W:
W: UJV-Naturjodelsammlung: Code-Nr: 01-07
W:http://www.naturjodler.ch/code 01.htm  (with AUDIO)
%April 26, 2018

